X:21
T:GB/7b/21B (No title given)
%%VWML:GB-7b-21B-0
F:http://www.vwml.org/record/GB/7b/21B
C:Transcribed by Simon Furey and Lewis Jones
L:1/8
Q:1/4=120
M:6/8
I:linebreak $
K:F
C | F2 G A2 B | cAf e2 d | c2 A F2 F | GBA G2 G | c>=Bc def |$ ege c2 f | e>dc GA=B | c3 c2 || e | g2 e gec | B>cB A2 c | f2 c f2 c |$ B>cB A2 c | d2 e f2 e | dcB ABc | d2 d d2 G | AGF D2 E |
F2 F FAc |$ d2 e f2 d | c>AF GAG | D2 E F2 G | A2 f A>BG | F3 F3 |]

